src/images/svg/logo.svg

<svg width="40" height="40" viewBox="0 0 40 40" fill="none" xmlns="http://www.w3.org/2000/svg">
<rect width="40" height="40" rx="12" fill="#8BAA36"/>
<path d="M8.79883 8.89566V13.9857V14.0884V13.9857C8.79883 15.439 9.43295 16.7258 10.4161 17.5585C10.8969 17.9658 11.2145 18.5156 11.2145 19.1259V27.6223C11.2145 28.5668 12.0262 29.3334 13.0263 29.3334C14.0264 29.3334 14.838 28.5668 14.838 27.6223V19.1259C14.838 18.5156 15.1557 17.9658 15.6364 17.5585C16.6196 16.7258 17.2537 15.439 17.2537 13.9857V8.89566V13.9857" stroke="#FAFAFA" stroke-width="2" stroke-linecap="round" stroke-linejoin="round"/>
<path d="M13.0254 14.5038V8.79999" stroke="#FAFAFA" stroke-width="2" stroke-linecap="round" stroke-linejoin="round"/>
<path d="M29.3322 9.99973C29.3322 9.37004 28.7911 8.85898 28.1243 8.85898H26.9165C24.9151 8.85898 23.293 10.391 23.293 12.2812V19.1258C23.293 20.6133 24.3039 21.867 25.7087 22.3381V27.6221C25.7087 28.5667 26.5203 29.3332 27.5204 29.3332C28.5205 29.3332 29.3322 28.5667 29.3322 27.6221V22.548V9.99973Z" stroke="#FAFAFA" stroke-width="2" stroke-linecap="round" stroke-linejoin="round"/>
</svg>

<svg width="40" height="40" fill="none" xmlns="http://www.w3.org/2000/svg"><rect width="40" height="40" rx="12" fill="#8BAA36"/><path d="M8.799 8.896v5.192-.102c0 1.453.634 2.74 1.617 3.572.48.408.798.958.798 1.568v8.496c0 .945.812 1.711 1.812 1.711s1.812-.766 1.812-1.71v-8.497c0-.61.318-1.16.798-1.568.984-.832 1.618-2.119 1.618-3.572v-5.09 5.09M13.025 14.504V8.8M29.332 10c0-.63-.54-1.141-1.208-1.141h-1.207c-2.002 0-3.624 1.532-3.624 3.422v6.845c0 1.487 1.01 2.741 2.416 3.212v5.284c0 .945.811 1.711 1.811 1.711 1 0 1.812-.766 1.812-1.71V10z" stroke="#FAFAFA" stroke-width="2" stroke-linecap="round" stroke-linejoin="round"/></svg>
